src/apps/scalable/kontena-lens.svg

<?xml version="1.0" encoding="UTF-8"?>
<svg width="64" height="64" version="1.1" xmlns="http://www.w3.org/2000/svg">
 <defs>
  <linearGradient id="linearGradient862-5" x1="7.9373" x2="7.9373" y1="15.081" y2="1.852" gradientTransform="matrix(4.0494 0 0 4.0494 -2.2856 -2.2519)" gradientUnits="userSpaceOnUse">
   <stop stop-color="#0e71de" offset="0"/>
   <stop stop-color="#25c9ff" offset="1"/>
  </linearGradient>
  <filter id="filter7" x="-.027" y="-.027" width="1.054" height="1.054" color-interpolation-filters="sRGB">
   <feGaussianBlur stdDeviation="0.675"/>
  </filter>
 </defs>
 <rect x="2" y="3" width="60" height="60" rx="30" ry="30" filter="url(#filter7)" opacity=".15"/>
 <rect x="2" y="2" width="60" height="60" rx="30" ry="30" fill="url(#linearGradient862-5)" stroke-width="4.0494"/>
 <path d="m13 13v9.5111l8.383 10.539 4.4828-20.05zm14.573 0-2.568 11.478 23.861-11.478zm23.427 0.82754-17.089 8.2271 17.089 8.3125zm-38 11.367v16.306h12.662zm28.344 2.323 5.5107 23.483h4.1451v-18.777zm0.41191 9.0992-11.255 14.384h14.632zm-28.756 6.7836v7.6h15.378l5.9449-7.6z" fill="#fff" stroke-width=".95"/>
</svg>

<svg xmlns="http://www.w3.org/2000/svg" width="64" height="64"><defs><linearGradient id="b" x1="7.937" x2="7.937" y1="15.081" y2="1.852" gradientTransform="translate(-2.286 -2.252) scale(4.0494)" gradientUnits="userSpaceOnUse"><stop offset="0" stop-color="#0e71de"/><stop offset="1" stop-color="#25c9ff"/></linearGradient><filter id="a" width="1.054" height="1.054" x="-.027" y="-.027" color-interpolation-filters="sRGB"><feGaussianBlur stdDeviation=".675"/></filter></defs><rect width="60" height="60" x="2" y="3" filter="url(#a)" opacity=".15" rx="30" ry="30"/><rect width="60" height="60" x="2" y="2" fill="url(#b)" rx="30" ry="30"/><path fill="#fff" d="M13 13v9.511l8.383 10.54L25.866 13zm14.573 0-2.568 11.478L48.866 13zM51 13.828l-17.089 8.227L51 30.367zM13 25.195V41.5h12.662zm28.344 2.323L46.854 51H51V32.224zm.412 9.099L30.5 51h14.632zM13 43.4V51h15.378l5.945-7.6z"/></svg>
